common/resources/fonts/svg/data.svg

<?xml version="1.0" encoding="UTF-8" standalone="no"?>
<svg width="1024px" height="1024px" viewBox="0 0 1024 1024" version="1.1" xmlns="http://www.w3.org/2000/svg" xmlns:xlink="http://www.w3.org/1999/xlink">
    <!-- Generator: Sketch 3.7.1 (28215) - http://www.bohemiancoding.com/sketch -->
    <title>data</title>
    <desc>Created with Sketch.</desc>
    <defs></defs>
    <g id="Page-1" stroke="none" stroke-width="1" fill="none" fill-rule="evenodd">
        <g id="data" fill="#000000">
            <path d="M146.189797,397.061149 C174.501225,419.490978 210.787703,438.930163 252.955781,454.780575 C325.229673,481.895745 414.74961,498.045222 512.045222,498.045222 C609.340833,498.045222 698.860771,481.796057 771.134663,454.780575 C813.402428,438.930163 849.589218,419.39129 877.900646,397.061149 C900.330474,379.316663 917.676209,359.977166 929.040655,339.341724 C939.208844,320.999109 945.090443,301.659612 945.090443,281.622299 C945.190131,161.996547 751.396413,65 512.14491,65 C272.893406,65 79,161.996547 79,281.522611 C79,301.559924 84.8815995,320.899421 95.0497884,339.242036 C106.513923,359.877478 123.859657,379.316663 146.189797,397.061149 L146.189797,397.061149 Z M878.000334,512.5 C849.688906,534.929828 813.402428,554.369013 771.234351,570.219425 C698.960459,597.334596 609.440521,613.484072 512.14491,613.484072 C414.849298,613.484072 325.329361,597.234908 253.055469,570.219425 C210.787703,554.369013 174.600913,534.83014 146.289485,512.5 C123.859657,494.755513 106.513923,475.416017 95.1494765,454.780575 C84.9812876,473.12319 79.0996881,492.462687 79.0996881,512.5 C79.0996881,532.537313 84.9812876,551.87681 95.1494765,570.219425 C106.513923,590.854867 123.859657,610.294052 146.289485,627.938851 C223.049343,688.549231 358.027066,729.022611 512.14491,729.022611 C666.362442,729.022611 801.240477,688.549231 878.000334,627.938851 C900.430163,610.194364 917.676209,590.854867 929.140343,570.219425 C939.308532,551.87681 945.190131,532.537313 945.190131,512.5 C945.190131,492.462687 939.308532,473.12319 929.140343,454.780575 C917.676209,475.416017 900.330474,494.855202 878.000334,512.5 L878.000334,512.5 Z M512.14491,844.561149 C312.968033,844.561149 145.691357,777.271664 95.1494765,685.757964 C84.9812876,704.100579 79.0996881,723.440076 79.0996881,743.477389 C79.0996881,863.003453 272.993094,960 512.244598,960 C751.496102,960 945.389508,863.003453 945.389508,743.477389 C945.389508,723.440076 939.507908,704.100579 929.339719,685.757964 C878.498775,777.271664 711.222098,844.561149 512.14491,844.561149 L512.14491,844.561149 Z" id="Shape"></path>
        </g>
    </g>
</svg>

<svg width="1024" height="1024" viewBox="0 0 1024 1024">
    <path d="M146.19 397.061c28.311 22.43 64.598 41.87 106.766 57.72 72.274 27.115 161.794 43.264 259.09 43.264 97.295 0 186.815-16.249 259.089-43.264 42.267-15.85 78.454-35.39 106.766-57.72 22.43-17.744 39.775-37.084 51.14-57.72 10.168-18.342 16.05-37.681 16.05-57.719C945.19 161.997 751.395 65 512.144 65S79 161.997 79 281.523c0 20.037 5.882 39.376 16.05 57.719 11.464 20.635 28.81 40.075 51.14 57.82zM878 512.5c-28.311 22.43-64.598 41.869-106.766 57.72-72.274 27.115-161.793 43.264-259.09 43.264-97.295 0-186.815-16.25-259.089-43.265-42.267-15.85-78.454-35.389-106.766-57.719-22.43-17.744-39.775-37.084-51.14-57.72-10.168 18.343-16.05 37.683-16.05 57.72s5.882 39.377 16.05 57.72c11.365 20.635 28.71 40.074 51.14 57.719 76.76 60.61 211.738 101.084 365.856 101.084 154.217 0 289.095-40.474 365.855-101.084 22.43-17.745 39.676-37.084 51.14-57.72 10.169-18.342 16.05-37.682 16.05-57.719s-5.881-39.377-16.05-57.72c-11.464 20.636-28.81 40.075-51.14 57.72zM512.145 844.561c-199.177 0-366.454-67.29-416.996-158.803-10.168 18.343-16.05 37.682-16.05 57.72C79.1 863.002 272.994 960 512.246 960c239.251 0 433.145-96.997 433.145-216.523 0-20.037-5.882-39.376-16.05-57.719-50.841 91.514-218.118 158.803-417.195 158.803z" fill-rule="evenodd"/>
</svg>
